icons/op-export-atom-24.svg

<svg width="24" height="24" viewBox="0 0 24 24" fill="none" xmlns="http://www.w3.org/2000/svg">
<path d="M10.5191 16.5938C10.5191 17.0625 10.1527 17.4688 9.66412 17.4688C9.20611 17.4688 8.80916 17.0625 8.80916 16.5938C8.80916 16.125 9.20611 15.7188 9.66412 15.7188C10.1527 15.7188 10.5191 16.125 10.5191 16.5938ZM8.87023 13.1875V14.3438C9.66412 14.3438 10.4275 14.6875 10.9771 15.25C11.5573 15.8438 11.8626 16.5938 11.8626 17.4062H12.9924C12.9618 15.0938 11.1298 13.2188 8.87023 13.1875ZM8.87023 10.9688V12.0938C11.7099 12.125 14.0305 14.5 14.0611 17.4062H15.1603C15.1298 13.875 12.3511 11 8.87023 10.9688ZM18 7.6875L14.3664 4H6V20H18V7.6875ZM7.37405 18.5625V5.4375H13.7863L16.5954 8.3125V18.5625H7.37405Z" fill="black"/>
</svg>

<svg xmlns="http://www.w3.org/2000/svg" width="24" height="24" viewBox="0 0 24 24"><path d="M10.519 16.594a.864.864 0 0 1-.855.875c-.458 0-.855-.407-.855-.875 0-.469.397-.875.855-.875.489 0 .855.406.855.875ZM8.87 13.188v1.156c.794 0 1.558.344 2.107.906a3.04 3.04 0 0 1 .886 2.156h1.129c-.03-2.312-1.862-4.187-4.122-4.218Zm0-2.219v1.125c2.84.031 5.16 2.406 5.191 5.312h1.099c-.03-3.531-2.809-6.406-6.29-6.437ZM18 7.688 14.366 4H6v16h12V7.688ZM7.374 18.562V5.438h6.412l2.809 2.874v10.25H7.374Z"/></svg>
